pix_core/i/grades.svg

<svg preserveAspectRatio="xMinYMid meet" viewBox="0 0 384 512" xmlns="http://www.w3.org/2000/svg"><path d="m192 0c-41.8 0-77.4 26.7-90.5 64h-37.5c-35.3 0-64 28.7-64 64v320c0 35.3 28.7 64 64 64h256c35.3 0 64-28.7 64-64v-320c0-35.3-28.7-64-64-64h-37.5c-13.1-37.3-48.7-64-90.5-64zm0 64a32 32 0 1 1 0 64 32 32 0 1 1 0-64zm113 209-128 128c-9.4 9.4-24.6 9.4-33.9 0l-64.1-64c-9.4-9.4-9.4-24.6 0-33.9s24.6-9.4 33.9 0l47 47 111.1-111.1c9.4-9.4 24.6-9.4 33.9 0s9.4 24.6 0 33.9z" fill="#fff"/></svg>

<svg xmlns="http://www.w3.org/2000/svg" viewBox="0 0 384 512" preserveAspectRatio="xMinYMid meet"><!--!Font Awesome Free 6.5.2 by @fontawesome - https://fontawesome.com License - https://fontawesome.com/license/free Copyright 2024 Fonticons, Inc.--><path fill="#fff" d="M192 0c-41.8 0-77.4 26.7-90.5 64H64C28.7 64 0 92.7 0 128V448c0 35.3 28.7 64 64 64H320c35.3 0 64-28.7 64-64V128c0-35.3-28.7-64-64-64H282.5C269.4 26.7 233.8 0 192 0zm0 64a32 32 0 1 1 0 64 32 32 0 1 1 0-64zM305 273L177 401c-9.4 9.4-24.6 9.4-33.9 0L79 337c-9.4-9.4-9.4-24.6 0-33.9s24.6-9.4 33.9 0l47 47L271 239c9.4-9.4 24.6-9.4 33.9 0s9.4 24.6 0 33.9z"/></svg>
